src/components/pictograms/svg/originals/PictogramBleedSettings.svg

<svg viewBox="0 0 240 240" fill="none" xmlns="http://www.w3.org/2000/svg"><g clip-path="url(#clip0_20371_23331)"><path d="M195.491 126.862C195.082 127.939 195.535 129.169 196.541 129.715C198.478 130.772 243.651 155.124 265.606 147.077C265.879 146.977 266.152 146.877 266.417 146.755L264.628 142.467C256.655 145.772 242.827 143.969 224.621 137.233C213.726 133.205 204.249 128.484 200.491 126.55C203.388 117.158 201.879 107.54 200.655 102.465C199.746 98.6823 196.243 96.061 192.323 96.2122C189.234 96.3311 186.511 98.1199 185.212 100.882C183.169 105.19 180.489 112.413 179.207 115.961C175.106 114.374 165.036 109.29 146.764 98.8085C143.721 97.0689 140.273 96.281 136.773 96.5627C132.414 96.8998 128.853 100.145 128.123 104.454C127.655 107.221 128.402 110.024 130.199 112.147C134.979 117.834 145.718 125.478 150.157 128.523C148.577 131.228 147.518 135.014 147.686 140.316C147.768 142.758 148.131 145.159 148.739 147.519C148.739 147.519 148.726 147.548 148.73 147.559L148.751 147.551C151.076 156.426 157.141 164.695 166.89 172.208C201.432 198.799 238.364 200.86 239.926 200.93L240.153 196.299C239.789 196.284 203.084 194.202 169.736 168.532C161.29 162.038 155.895 155.018 153.593 147.618C154.894 143.916 158.215 137.125 163.147 136.158C167.245 135.348 172.355 138.666 177.931 145.743C178.838 146.894 179.073 148.476 178.552 149.853C178.076 151.115 177.071 151.953 175.799 152.197C171.969 152.896 167.933 151.384 163.813 147.692L160.714 151.151C167.25 156.998 172.982 157.431 176.647 156.755C177.111 156.672 177.571 156.54 178.007 156.38C180.244 155.561 182.026 153.807 182.905 151.483C183.893 148.884 183.568 145.951 182.108 143.631C184.991 137.433 184.157 131.127 179.715 126.428C173.837 120.215 163.912 118.922 155.578 123.298C154.778 123.715 153.953 124.265 153.149 124.942C149.108 122.172 138.251 114.51 133.757 109.162C132.848 108.073 132.47 106.642 132.703 105.222C133.081 103.02 134.896 101.354 137.134 101.176C139.683 100.971 142.209 101.541 144.436 102.813C158.367 110.82 175.905 120.483 180.325 121.087C181.422 121.242 182.473 120.597 182.835 119.562C182.869 119.451 186.796 108.384 189.405 102.855C189.973 101.671 191.152 100.905 192.493 100.846C194.201 100.776 195.732 101.908 196.124 103.544C197.302 108.464 198.795 118.038 195.454 126.863L195.491 126.862ZM157.77 127.402C165.007 123.612 172.6 125.637 176.365 129.608C178.96 132.352 179.753 135.819 178.739 139.49C172.955 133.231 167.417 130.564 162.258 131.59C157.769 132.481 154.533 136.003 152.359 139.519C152.288 133.403 154.106 129.325 157.77 127.402Z" fill="#0B3EE3"/><path d="M53.7797 92.9697C53.2827 92.9697 52.6267 93.0895 51.9806 93.3293C48.3822 94.6182 44.774 95.9072 41.1756 97.1961C39.9331 97.6457 38.7701 97.3459 37.8854 96.3568C35.1519 93.3094 32.8358 89.9822 30.9373 86.3553C29.6749 83.9373 28.6113 81.4294 27.7863 78.8216C27.4185 77.6626 27.6769 76.6135 28.5914 75.8142C30.4105 74.2156 32.2693 72.6669 34.1181 71.0982C35.3308 70.0591 36.5733 69.0499 37.7562 67.9808C40.1717 65.8027 40.2015 61.856 37.786 59.6579C36.3745 58.379 34.8935 57.17 33.4422 55.9411C31.822 54.5622 30.1818 53.2034 28.5914 51.7946C27.6769 50.9853 27.4185 49.9362 27.7962 48.7671C28.6809 46.0095 29.824 43.3517 31.1957 40.7939C33.0545 37.3169 35.3109 34.1196 37.9451 31.202C38.7999 30.2529 39.8735 29.9731 41.0663 30.3927C43.9688 31.4119 46.8614 32.461 49.7639 33.4901C50.5989 33.7899 51.4239 34.1096 52.2688 34.3694C55.5988 35.4085 58.9884 33.3502 59.6345 29.9131C60.1911 26.9357 60.718 23.9582 61.2647 20.9807C61.4138 20.1414 61.5629 19.3121 61.7219 18.4828C61.9704 17.2139 62.8452 16.3746 64.1076 16.1148C66.692 15.5953 69.2864 15.2556 71.9205 15.1357C74.5546 15.0158 77.1788 15.0857 79.7832 15.4254C81.2145 15.6153 82.636 15.8551 84.0574 16.1148C85.5186 16.3846 86.3039 17.2239 86.5723 18.6827C87.2085 22.2197 87.8546 25.7467 88.5106 29.2737C88.6299 29.9131 88.7492 30.5626 89.0076 31.1521C89.9718 33.3103 91.6616 34.4693 94.0175 34.6291C94.8027 34.6791 95.5582 34.5392 96.2937 34.2694C99.8921 32.9805 103.48 31.6916 107.079 30.4127C108.321 29.9731 109.474 30.2728 110.359 31.262C113.341 34.5892 115.826 38.2561 117.804 42.2627C118.848 44.3709 119.733 46.539 120.448 48.7771C120.816 49.9362 120.568 50.9853 119.653 51.7846C117.824 53.3832 115.965 54.9419 114.116 56.5106C112.904 57.5497 111.661 58.5588 110.478 59.6279C108.073 61.8061 108.053 65.7527 110.449 67.9409C111.86 69.2198 113.341 70.4288 114.792 71.6577C116.413 73.0465 118.063 74.4054 119.663 75.8142C120.568 76.6135 120.836 77.6526 120.458 78.8017C118.739 84.1072 116.194 88.983 112.794 93.3893C111.999 94.4184 111.164 95.4076 110.309 96.3867C109.464 97.3459 108.391 97.6257 107.198 97.216C104.683 96.3468 102.188 95.4276 99.6833 94.5383C98.4309 94.0887 97.1983 93.6191 95.9359 93.2194C93.0334 92.2802 89.783 93.9288 88.8585 96.8564C88.5703 97.7756 88.4311 98.7447 88.2621 99.6939C87.6756 102.851 87.1091 106.009 86.5325 109.166C86.3138 110.355 85.4292 111.234 84.2065 111.484C81.6519 112.004 79.0774 112.343 76.4632 112.473C73.6402 112.603 70.8271 112.513 68.0339 112.133C66.7019 111.954 65.3799 111.724 64.0678 111.484C62.8253 111.254 61.9605 110.385 61.7319 109.136C61.1653 106.089 60.6186 103.041 60.0619 99.9937C59.9128 99.1544 59.7736 98.3051 59.5947 97.4658C59.0182 94.8281 56.6922 92.9697 53.8096 92.9697H53.7797ZM59.9526 63.7844C59.9526 71.6178 66.2646 78.0223 74.0179 78.0323C81.9004 78.0423 88.2422 71.7077 88.2522 63.8144C88.2621 55.991 81.9203 49.5964 74.1372 49.5964C66.3043 49.5964 59.9526 55.9411 59.9526 63.7944V63.7844Z" fill="#AAEEEF"/><path d="M82.5143 19.4841C82.2085 19.3137 74.7898 15.4353 65.7729 18.7124C64.816 19.0632 64.1057 19.8749 63.8689 20.8871L61.1658 32.372L60.8402 33.6648C60.4851 35.0878 59.5972 36.2704 58.3542 37.012C57.1111 37.7536 55.6609 37.954 54.2601 37.5832L40.3598 33.8451L39.7087 34.2861C39.4128 34.4865 32.5465 39.2869 31.1456 48.9177C30.9976 49.9399 31.3627 50.9622 32.1322 51.6536L40.8926 59.5507C42.4611 60.8836 43.3096 62.8278 43.2306 64.9023C43.1517 66.9768 42.1455 68.8508 40.4782 70.0434L34.0164 74.6834C31.6093 76.4172 30.6326 79.574 31.6586 82.3701C33.1384 86.4088 35.7133 91.8506 39.541 94.7769C39.8567 95.0174 40.2217 95.1276 40.5769 95.1276C41.0997 95.1276 41.6127 94.8871 41.958 94.4261C42.5302 93.6545 42.3822 92.5521 41.6226 91.9708C39.1563 90.0767 36.7689 86.2284 34.8944 81.1374C34.411 79.8346 34.8747 78.3514 36.0092 77.5296L42.471 72.8896C45.0163 71.0556 46.5553 68.1894 46.6736 65.0225C46.8019 61.8557 45.4898 58.8692 43.132 56.8749L34.5788 49.1683C35.5949 42.7845 39.541 38.9061 41.0405 37.6333L53.3623 40.9405C55.6511 41.5518 58.0385 41.2211 60.0806 40.0085C62.1227 38.7958 63.5729 36.8416 64.1648 34.5066L67.154 21.8893C74.5728 19.3037 80.7879 22.4906 80.8964 22.5507C81.735 23.0017 82.7807 22.671 83.2246 21.8191C83.6686 20.9673 83.3529 19.905 82.5045 19.454L82.5143 19.4841Z" fill="#00C5CA"/><path d="M146.686 11.2363C147.439 10.651 147.586 9.56977 147.009 8.80593C146.441 8.0421 145.366 7.8933 144.613 8.47858L123.625 24.7274C122.872 25.3127 122.725 26.3939 123.302 27.1578C123.635 27.6042 124.143 27.8422 124.661 27.8422C125.023 27.8422 125.385 27.7232 125.698 27.4851L146.686 11.2363Z" fill="#00C5CA"/><path d="M153.148 31.6186C152.981 30.6564 152.085 30.0183 151.15 30.1905L126.69 34.7685C125.755 34.9407 125.135 35.8624 125.303 36.8246C125.45 37.6754 126.179 38.2831 126.996 38.2831C127.094 38.2831 127.202 38.2831 127.301 38.2527L151.76 33.6746C152.695 33.5025 153.315 32.5808 153.148 31.6186Z" fill="#00C5CA"/></g><defs><clipPath id="clip0_20371_23331"><rect width="224" height="240" fill="white" transform="translate(16)"/></clipPath></defs></svg>

<svg xmlns="http://www.w3.org/2000/svg" fill="none" viewBox="0 0 240 240"><path fill="#0B3EE3" d="M195.491 126.862a2.322 2.322 0 0 0 1.05 2.853c1.937 1.057 47.11 25.409 69.065 17.362.273-.1.546-.2.811-.322l-1.789-4.288c-7.973 3.305-21.801 1.502-40.007-5.234-10.895-4.028-20.372-8.749-24.13-10.683 2.897-9.392 1.388-19.01.164-24.085-.909-3.783-4.412-6.404-8.332-6.253-3.089.12-5.812 1.908-7.111 4.67-2.043 4.308-4.723 11.531-6.005 15.079-4.101-1.587-14.171-6.671-32.443-17.153a17.256 17.256 0 0 0-9.991-2.245 9.503 9.503 0 0 0-8.65 7.891c-.468 2.767.279 5.57 2.076 7.693 4.78 5.687 15.519 13.331 19.958 16.376-1.58 2.705-2.639 6.491-2.471 11.793a33.282 33.282 0 0 0 1.053 7.203s-.013.029-.009.04l.021-.008c2.325 8.875 8.39 17.144 18.139 24.657 34.542 26.591 71.474 28.652 73.036 28.722l.227-4.631c-.364-.015-37.069-2.097-70.417-27.767-8.446-6.494-13.841-13.514-16.143-20.914 1.301-3.702 4.622-10.493 9.554-11.46 4.098-.81 9.208 2.508 14.784 9.585a4.255 4.255 0 0 1 .621 4.11c-.476 1.262-1.481 2.1-2.753 2.344-3.83.699-7.866-.813-11.986-4.505l-3.099 3.459c6.536 5.847 12.268 6.28 15.933 5.604a8.138 8.138 0 0 0 1.36-.375c2.237-.819 4.019-2.573 4.898-4.897.988-2.599.663-5.532-.797-7.852 2.883-6.198 2.049-12.504-2.393-17.203-5.878-6.213-15.803-7.506-24.137-3.13-.8.417-1.625.967-2.429 1.644-4.041-2.77-14.898-10.432-19.392-15.78a4.887 4.887 0 0 1-1.054-3.94 4.881 4.881 0 0 1 4.431-4.046 12.632 12.632 0 0 1 7.302 1.637c13.931 8.007 31.469 17.67 35.889 18.274a2.318 2.318 0 0 0 2.51-1.525c.034-.111 3.961-11.178 6.57-16.707.568-1.184 1.747-1.95 3.088-2.009 1.708-.07 3.239 1.062 3.631 2.698 1.178 4.92 2.671 14.494-.67 23.319l.037-.001Zm-37.721.54c7.237-3.79 14.83-1.765 18.595 2.206 2.595 2.744 3.388 6.211 2.374 9.882-5.784-6.259-11.322-8.926-16.481-7.9-4.489.891-7.725 4.413-9.899 7.929-.071-6.116 1.747-10.194 5.411-12.117Z"/><path fill="#AAEEEF" d="M53.78 92.97c-.497 0-1.153.12-1.8.36-3.598 1.288-7.206 2.577-10.804 3.866-1.243.45-2.406.15-3.29-.84a48.829 48.829 0 0 1-6.949-10 46.713 46.713 0 0 1-3.15-7.534c-.368-1.16-.11-2.209.804-3.008 1.82-1.598 3.678-3.147 5.527-4.716 1.213-1.039 2.455-2.048 3.638-3.117 2.416-2.178 2.446-6.125.03-8.323-1.412-1.279-2.892-2.488-4.344-3.717-1.62-1.379-3.26-2.738-4.85-4.146-.915-.81-1.173-1.859-.796-3.028a47.678 47.678 0 0 1 3.4-7.973 48.14 48.14 0 0 1 6.75-9.592c.854-.95 1.928-1.229 3.12-.81 2.903 1.02 5.795 2.069 8.698 3.098.835.3 1.66.62 2.505.88 3.33 1.038 6.72-1.02 7.366-4.457.556-2.977 1.083-5.955 1.63-8.932.149-.84.298-1.669.457-2.498.248-1.27 1.123-2.108 2.386-2.368 2.584-.52 5.178-.86 7.813-.98 2.634-.12 5.258-.05 7.862.29 1.431.19 2.853.43 4.274.69 1.462.27 2.247 1.109 2.515 2.568.636 3.537 1.283 7.064 1.939 10.59.119.64.238 1.29.497 1.88.964 2.157 2.654 3.316 5.01 3.476.785.05 1.54-.09 2.276-.36 3.598-1.288 7.186-2.577 10.785-3.856 1.242-.44 2.395-.14 3.28.849a48.743 48.743 0 0 1 7.445 11 46.648 46.648 0 0 1 2.644 6.515c.368 1.16.12 2.208-.795 3.008-1.829 1.598-3.688 3.157-5.537 4.726-1.212 1.039-2.455 2.048-3.638 3.117-2.405 2.178-2.425 6.125-.029 8.313 1.411 1.279 2.892 2.488 4.343 3.717 1.621 1.388 3.271 2.747 4.871 4.156.905.8 1.173 1.839.795 2.988-1.719 5.305-4.264 10.181-7.664 14.587a64.715 64.715 0 0 1-2.485 2.998c-.845.959-1.918 1.239-3.111.829-2.515-.87-5.01-1.788-7.515-2.678-1.252-.45-2.485-.919-3.747-1.319-2.903-.939-6.153.71-7.078 3.637-.288.92-.427 1.889-.596 2.838-.586 3.157-1.153 6.315-1.73 9.472-.218 1.189-1.103 2.068-2.325 2.318-2.555.52-5.13.859-7.744.989-2.823.13-5.636.04-8.43-.34a84.91 84.91 0 0 1-3.965-.649c-1.243-.23-2.107-1.099-2.336-2.348-.567-3.047-1.113-6.095-1.67-9.142-.15-.84-.288-1.689-.467-2.528-.577-2.638-2.903-4.496-5.785-4.496h-.03Zm6.173-29.186c0 7.834 6.312 14.238 14.065 14.248a14.187 14.187 0 0 0 14.234-14.218c.01-7.823-6.332-14.218-14.115-14.218-7.833 0-14.184 6.345-14.184 14.198v-.01Z"/><path fill="#00C5CA" d="M82.514 19.484c-.305-.17-7.724-4.049-16.741-.772a3.032 3.032 0 0 0-1.904 2.175l-2.703 11.485-.326 1.293a5.388 5.388 0 0 1-2.486 3.347 5.28 5.28 0 0 1-4.094.571l-13.9-3.738-.651.441c-.296.2-7.163 5-8.563 14.632a3.074 3.074 0 0 0 .986 2.736l8.76 7.897a6.632 6.632 0 0 1 2.339 5.351 6.58 6.58 0 0 1-2.753 5.141l-6.462 4.64a6.67 6.67 0 0 0-2.357 7.687c1.48 4.039 4.054 9.48 7.882 12.407.316.24.68.35 1.036.35.523 0 1.036-.24 1.381-.7a1.774 1.774 0 0 0-.335-2.456c-2.467-1.894-4.854-5.743-6.729-10.834-.483-1.302-.02-2.786 1.115-3.607l6.462-4.64a10.097 10.097 0 0 0 4.203-7.868c.128-3.166-1.184-6.153-3.542-8.147l-8.553-7.707c1.016-6.383 4.962-10.262 6.462-11.535l12.321 3.307a8.677 8.677 0 0 0 6.719-.931c2.042-1.213 3.492-3.167 4.084-5.502l2.989-12.618c7.419-2.585 13.634.602 13.742.662.839.45 1.885.12 2.329-.732a1.76 1.76 0 0 0-.72-2.365l.01.03ZM146.686 11.236c.753-.585.9-1.666.323-2.43a1.687 1.687 0 0 0-2.396-.327l-20.988 16.248a1.745 1.745 0 0 0-.323 2.43c.333.447.841.685 1.359.685.362 0 .724-.119 1.037-.357l20.988-16.249ZM153.148 31.619c-.167-.963-1.063-1.6-1.998-1.428l-24.46 4.578c-.935.172-1.555 1.093-1.387 2.056.147.85.876 1.458 1.693 1.458.098 0 .206 0 .305-.03l24.459-4.578c.935-.172 1.555-1.094 1.388-2.056Z"/></svg>
